X:4
T:Allegro grazioso
C:Schumann
M:C
L:1/8
Q:1/4=66
%%staves {1 (2 3)}
K:G
V:1
(!p!B2AB G3)(A |Bcd[Ge]) ([F3A3][^GB])|([A2c2][^GB][Ac] AF=GA)|[G2B2][F2A2] {/G}G3B|
V:2
% this voice is not complete, but the measure must be respected
 G,2C2 xD3-    |D2x2	 x4	      | A,2D2		C2x2  |x8		   |
V:3
(G,DCD B,D2)(F,|G,A,B,C  (D2)CB,)     |(A,EDE		CDB,C)|D2[D,2C2]  [G,3B,3]D|

% --- vocal ---

